static/images/icons/icon-pencil.svg

<svg fill="none" height="24" viewBox="0 0 23 24" width="23" xmlns="http://www.w3.org/2000/svg"><g fill="#7847a6"><path d="m13.6649 7.83287.5304-.53028 2.171 2.1714-.5303.53031z"/><path clip-rule="evenodd" d="m7.85665 18.5102 10.97105-10.96745-2.7013-2.7013-10.9588 10.95625-.99971 3.7009zm-2.01724-2.3236 10.28699-10.28454 1.6405 1.64061-10.29844 10.29503-2.23699.5994z" fill-rule="evenodd"/></g></svg>

<svg width="23" height="24" viewBox="0 0 23 24" fill="none" xmlns="http://www.w3.org/2000/svg">
<path d="M13.6649 7.83287L14.1953 7.30259L16.3663 9.47399L15.836 10.0043L13.6649 7.83287Z" fill="#7847A6"/>
<path fill-rule="evenodd" clip-rule="evenodd" d="M7.85665 18.5102L18.8277 7.54275L16.1264 4.84145L5.1676 15.7977L4.16789 19.4986L7.85665 18.5102ZM5.83941 16.1866L16.1264 5.90206L17.7669 7.54267L7.46846 17.8377L5.23147 18.4371L5.83941 16.1866Z" fill="#7847A6"/>
</svg>
